img/icons/lock.svg

<svg width="10" height="14" viewBox="0 0 10 14" fill="none" xmlns="http://www.w3.org/2000/svg">
<path d="M9.22116 5.59317H8.677V3.677C8.67697 1.64953 7.0275 0 4.99997 0C2.97256 0 1.32303 1.64953 1.32303 3.67703V5.5932H0.778898C0.348759 5.5932 0 5.9419 0 6.37207V12.7253C0 13.1555 0.348732 13.5042 0.778898 13.5042H9.22116C9.6513 13.5042 10 13.1555 10 12.7253V6.37207C10 5.94188 9.6513 5.59317 9.22116 5.59317ZM5.82904 11.1724H4.17099L4.46774 9.75836C4.19022 9.58176 4.00485 9.27339 4.00485 8.92007C4.00485 8.3705 4.45043 7.92497 5 7.92497C5.5496 7.92497 5.99509 8.3705 5.99509 8.92007C5.99509 9.27339 5.80978 9.58176 5.53229 9.75831L5.82904 11.1724ZM7.36499 5.59317H2.63501V3.677C2.63501 2.37282 3.69588 1.31198 5 1.31198C6.30418 1.31198 7.36499 2.37285 7.36499 3.677V5.59317Z" fill="white"/>
</svg>

<svg width="10" height="14" fill="none" xmlns="http://www.w3.org/2000/svg"><path d="M9.221 5.593h-.544V3.677A3.681 3.681 0 0 0 5 0a3.681 3.681 0 0 0-3.677 3.677v1.916H.779a.779.779 0 0 0-.779.78v6.352c0 .43.349.78.779.78H9.22c.43 0 .779-.35.779-.78V6.372a.779.779 0 0 0-.779-.779Zm-3.392 5.58H4.171l.297-1.415A.992.992 0 0 1 5 7.925a.995.995 0 0 1 .532 1.833l.297 1.414Zm1.536-5.58h-4.73V3.677A2.368 2.368 0 0 1 5 1.312a2.368 2.368 0 0 1 2.365 2.365v1.916Z" fill="#fff"/></svg>
